svg/franz.svg

<?xml version="1.0" encoding="UTF-8"?>
<svg width="80px" height="80px" viewBox="0 0 80 80" version="1.1" xmlns="http://www.w3.org/2000/svg" xmlns:xlink="http://www.w3.org/1999/xlink">
    <!-- Generator: Sketch 42 (36781) - http://www.bohemiancoding.com/sketch -->
    <title>franz</title>
    <desc>Created with Sketch.</desc>
    <defs>
        <filter x="-50%" y="-50%" width="200%" height="200%" filterUnits="objectBoundingBox" id="filter-1">
            <feOffset dx="0" dy="1" in="SourceAlpha" result="shadowOffsetOuter1"></feOffset>
            <feGaussianBlur stdDeviation="1" in="shadowOffsetOuter1" result="shadowBlurOuter1"></feGaussianBlur>
            <feColorMatrix values="0 0 0 0 0   0 0 0 0 0   0 0 0 0 0  0 0 0 0.3 0" type="matrix" in="shadowBlurOuter1" result="shadowMatrixOuter1"></feColorMatrix>
            <feMerge>
                <feMergeNode in="shadowMatrixOuter1"></feMergeNode>
                <feMergeNode in="SourceGraphic"></feMergeNode>
            </feMerge>
        </filter>
        <linearGradient x1="30.4719662%" y1="95.2408507%" x2="68.063052%" y2="3.5648771%" id="linearGradient-2">
            <stop stop-color="#318CC8" offset="0%"></stop>
            <stop stop-color="#5EC0FF" offset="100%"></stop>
        </linearGradient>
    </defs>
    <g id="icons" stroke="none" stroke-width="1" fill="none" fill-rule="evenodd">
        <g id="franz">
            <g id="Page-1" filter="url(#filter-1)" transform="translate(4.000000, 4.000000)">
                <path d="M35.9420808,71.5384615 C16.3467148,71.5384615 0.461538462,55.6532852 0.461538462,36.0579192 C0.461538462,16.4625533 16.3467148,0.577376909 35.9420808,0.577376909 C55.5374467,0.577376909 71.4226231,16.4625533 71.4226231,36.0579192 C71.4226231,55.6532852 55.5374467,71.5384615 35.9420808,71.5384615 Z" id="Fill-1" stroke="#FFFFFF" stroke-width="2.5" fill="url(#linearGradient-2)"></path>
                <path d="M48.9831862,47.7311418 C48.3589601,47.7311418 47.7333024,47.695349 47.1072541,47.6262364 L47.1072541,51.7992839 C47.1072541,53.122185 48.5184007,53.8277583 50.4587598,53.8277583 C52.3991188,53.8277583 56.8089193,54.18061 58.5727874,51.0937106 C59.4799717,49.5060731 60.0599449,47.7327036 60.4099332,46.2456764 C57.3247258,47.2180686 53.4557216,47.7311418 48.9831862,47.7311418" id="Fill-3" fill="#FEFEFE"></path>
                <path d="M60.8655036,43.2258722 C60.8656338,43.2176724 60.8658941,43.2080409 60.8658941,43.2002315 C60.8658941,42.8456878 60.7797311,40.8259338 60.667537,38.2174863 C60.6590769,38.2176164 60.6513977,38.2178768 60.6428075,38.2178768 C58.3771897,38.2178768 55.0258142,37.0998405 53.3244207,35.7764188 C52.9135196,35.4568869 52.4548514,35.0301068 51.9649459,34.5413727 C49.7058359,37.4808058 47.549809,41.6273016 47.1687136,44.910866 C47.7640451,44.9870071 48.3697891,45.0282664 48.9832122,45.0282664 C53.829164,45.0282664 57.9269816,44.3915454 60.8655036,43.2258722" id="Fill-5" fill="#FEFEFE"></path>
                <path d="M54.9840212,33.643 C56.1988932,34.5880595 58.8726789,35.4818377 60.5515554,35.5134655 C60.3633505,31.0949446 60.1603078,26.114412 60.1603078,24.4584428 C60.1603078,21.3716736 60.2495945,18.5935032 59.2783737,18.5935032 C56.8089323,18.5935032 57.4262601,29.3093405 54.3393608,31.9551427 C54.1456893,32.1212212 53.9478528,32.3035691 53.747153,32.5006246 C54.2137606,32.9712671 54.6418423,33.3768319 54.9840212,33.643" id="Fill-7" fill="#FEFEFE"></path>
                <path d="M12.0732694,35.4601798 C13.7241625,35.2508897 15.8906017,34.4664421 16.9491569,33.6430781 C17.3707308,33.3150861 17.9225903,32.7754611 18.5167504,32.1628189 C18.4383968,32.091754 18.3603035,32.0212096 18.2832514,31.9552208 C15.196352,29.3092884 15.8136798,18.5934511 13.3442384,18.5934511 C12.3731478,18.5934511 12.4623043,21.3716215 12.4623043,24.4585209 C12.4623043,26.107722 12.2608235,31.0550649 12.0732694,35.4601798" id="Fill-9" fill="#FEFEFE"></path>
                <path d="M25.4406878,44.8074965 C25.008311,41.3920845 22.6955769,37.0765166 20.3525165,34.1524418 C19.7173574,34.8036101 19.1252797,35.3746025 18.6085622,35.7765229 C17.0675204,36.9752556 14.1720798,38.005567 11.9563116,38.188826 C11.8435969,40.8110701 11.7566529,42.8443602 11.7566529,43.2002055 C11.7566529,43.278429 11.7602973,43.3748743 11.7669352,43.4845954 C14.6418112,44.484971 18.4764543,45.0282403 22.9499008,45.0282403 C23.7973437,45.0282403 24.6298186,44.9488454 25.4406878,44.8074965" id="Fill-11" fill="#FEFEFE"></path>
                <path d="M22.9499399,47.7311418 C18.830126,47.7311418 15.2211727,47.2965524 12.266251,46.4681122 C12.6207947,47.9073724 13.1873619,49.5845569 14.0497726,51.0937106 C15.8137709,54.18061 20.2235714,53.8277583 22.1638003,53.8277583 C24.1041594,53.8277583 25.515306,53.122185 25.515306,51.7992839 L25.515306,47.5360386 C24.6592728,47.6651529 23.8033699,47.7311418 22.9499399,47.7311418" id="Fill-13" fill="#FEFEFE"></path>
                <path d="M63.5454456,37.4703413 C63.0231314,37.4703413 62.4684084,37.6495655 61.8962446,38.0029379 C61.814637,38.0533081 61.4828705,38.2178247 60.6428465,38.2178247 C58.3770986,38.2178247 55.0258532,37.0999186 53.3244598,35.7764969 C52.4748043,35.1156971 51.4221061,33.9989624 50.3075841,32.8167595 C47.9636126,30.3303978 45.7496666,27.9820011 43.8337767,27.9820011 C42.471829,27.9820011 40.9034545,28.6166396 39.3866216,29.2305834 C38.1232016,29.7418344 36.8167001,30.2705263 35.966524,30.2705263 C35.1163479,30.2705263 33.8099765,29.7418344 32.5465565,29.2305834 C31.0297236,28.6166396 29.461219,27.9820011 28.0994014,27.9820011 C26.1833814,27.9820011 23.9693052,30.330528 21.6254639,32.8168896 C20.5109419,33.9990926 19.4582437,35.1156971 18.6085882,35.7764969 C16.9074551,37.0997884 13.5560796,38.2176945 11.2902015,38.2178247 C10.4503076,38.2178247 10.1185411,38.0533081 10.0369336,38.0029379 C9.46476974,37.6495655 8.9099166,37.4703413 8.3877325,37.4703413 C7.64857908,37.4703413 7.0250038,37.8567732 6.76039755,38.4787866 C6.43422772,39.2456631 6.70586237,40.1875989 7.48679572,40.9985982 C9.95272293,43.559539 15.5888491,45.0282143 22.9499269,45.0282143 C27.7832535,45.0282143 32.1465885,42.492784 34.6182426,40.1200482 C35.1197319,39.6387329 35.7738938,39.6142637 35.8998843,39.6142637 L35.9039192,39.6137431 L35.9276075,39.6223333 L36.0163736,39.614524 L36.0331636,39.6142637 C36.1591542,39.6142637 36.8134462,39.6387329 37.3149356,40.1200482 C39.7865896,42.492784 44.1497944,45.0282143 48.9831211,45.0282143 C56.3441989,45.0282143 61.980325,43.559539 64.4463824,40.9985982 C65.2273158,40.1877291 65.4986901,39.2456631 65.1726504,38.4787866 C64.9080442,37.8567732 64.2844689,37.4703413 63.5454456,37.4703413" id="Fill-15" fill="#FEFEFE"></path>
            </g>
        </g>
    </g>
</svg>

<svg xmlns="http://www.w3.org/2000/svg" width="80" height="80"><defs><linearGradient id="b" x1="30.472%" x2="68.063%" y1="95.241%" y2="3.565%"><stop offset="0%" stop-color="#318CC8"/><stop offset="100%" stop-color="#5EC0FF"/></linearGradient><filter id="a" width="200%" height="200%" x="-50%" y="-50%" filterUnits="objectBoundingBox"><feOffset dy="1" in="SourceAlpha" result="shadowOffsetOuter1"/><feGaussianBlur in="shadowOffsetOuter1" result="shadowBlurOuter1" stdDeviation="1"/><feColorMatrix in="shadowBlurOuter1" result="shadowMatrixOuter1" values="0 0 0 0 0 0 0 0 0 0 0 0 0 0 0 0 0 0 0.3 0"/><feMerge><feMergeNode in="shadowMatrixOuter1"/><feMergeNode in="SourceGraphic"/></feMerge></filter></defs><g fill="none" fill-rule="evenodd" filter="url(#a)" transform="translate(4 4)"><path fill="url(#b)" stroke="#FFF" stroke-width="2.5" d="M35.942 71.538c-19.595 0-35.48-15.885-35.48-35.48S16.347.578 35.942.578s35.48 15.885 35.48 35.48-15.885 35.48-35.48 35.48Z"/><path fill="#FEFEFE" d="M48.983 47.731c-.624 0-1.25-.036-1.876-.105V51.8c0 1.323 1.411 2.029 3.352 2.029 1.94 0 6.35.353 8.114-2.734.907-1.588 1.487-3.361 1.837-4.848-3.085.972-6.954 1.485-11.427 1.485m11.883-4.506V43.2c0-.354-.086-2.374-.198-4.983h-.025c-2.266 0-5.617-1.117-7.319-2.44-.41-.32-.87-.747-1.36-1.236-2.258 2.94-4.414 7.086-4.795 10.37.595.076 1.2.117 1.814.117 4.846 0 8.944-.636 11.883-1.802m-5.882-9.583c1.215.945 3.889 1.839 5.568 1.87-.189-4.418-.392-9.399-.392-11.055 0-3.086.09-5.864-.882-5.864-2.47 0-1.852 10.715-4.939 13.361-.193.166-.391.349-.592.546.467.47.895.876 1.237 1.142M12.073 35.46c1.651-.21 3.818-.994 4.876-1.817.422-.328.974-.868 1.568-1.48a11.11 11.11 0 0 0-.234-.208c-3.087-2.646-2.47-13.362-4.939-13.362-.97 0-.882 2.779-.882 5.866 0 1.649-.201 6.596-.389 11.001m13.367 9.347c-.432-3.415-2.744-7.73-5.087-10.655-.636.652-1.228 1.223-1.744 1.625-1.541 1.198-4.437 2.229-6.653 2.412-.112 2.622-.2 4.655-.2 5.011 0 .078.004.175.01.285 2.876 1 6.71 1.543 11.184 1.543.847 0 1.68-.08 2.49-.22m-2.49 2.923c-4.12 0-7.729-.434-10.684-1.263.355 1.44.921 3.117 1.784 4.626 1.764 3.087 6.174 2.734 8.114 2.734 1.94 0 3.351-.706 3.351-2.029v-4.263a17.07 17.07 0 0 1-2.565.195"/><path fill="#FEFEFE" d="M63.545 37.47c-.522 0-1.077.18-1.649.533-.081.05-.413.215-1.253.215-2.266 0-5.617-1.118-7.319-2.442-.85-.66-1.902-1.777-3.016-2.96-2.344-2.486-4.558-4.834-6.474-4.834-1.362 0-2.93.635-4.447 1.249-1.264.51-2.57 1.04-3.42 1.04-.85 0-2.157-.53-3.42-1.04-1.517-.614-3.086-1.249-4.448-1.249-1.916 0-4.13 2.349-6.474 4.835-1.114 1.182-2.167 2.299-3.016 2.96-1.702 1.323-5.053 2.44-7.319 2.44-.84 0-1.171-.164-1.253-.214-.572-.353-1.127-.533-1.65-.533-.738 0-1.362.387-1.627 1.009-.326.767-.054 1.709.727 2.52 2.466 2.56 8.102 4.03 15.463 4.03 4.833 0 9.197-2.536 11.668-4.909.502-.481 1.156-.506 1.282-.506h.004l.024.008.088-.007h.017c.126 0 .78.024 1.282.505 2.472 2.373 6.835 4.908 11.668 4.908 7.361 0 12.997-1.468 15.463-4.03.781-.81 1.053-1.752.727-2.52-.265-.621-.889-1.008-1.628-1.008"/></g></svg>
